X: 36522
T: Session At Hudson's
R: jig
M: 6/8
K: Bminor
|:F|Bcd cde|fed cde|fdB ecA|dBd cAF|
Bcd cde|fed cde|fdB ecA|B3 B2:|
|:c|dAF DFA|ecA EAe|fAf gBg|fed ecA|
dAF DFA|ecA EAe|fed cBA|B3 B2:|

